X:17041
T:The Musical Chisholm Household
R:pipe reel
C:Jerry Holland, SOCAN
O:20th Century Cape Breton
S:Tune ofthe Month, Sept. 2000
B:Jerry Holland: The Second Collection (Nov. 2000)
D:Jerry Holland: Crystal Clear (Nov. 2000)
A:<http://www.jerryholland.com>
N:Contacts ...
N:..... Jerry Holland <jerry@cranfordpub.com>
N:Tune books, related recordings
N:..... Cranford Publications <http://www.cranfordpub.com>
H:Copyrights - www.fiddlesticksmusic.com (SOCAN)
Z:Paul Stewart Cranford 
L:1/8
Q:300
M:C|
K:Ador
B|d2 e2 BAAB|eddB egge|d2 de DE G2|DEGA Bdge|!
d2 e2 BAAB|eddB egga|b2 a2 g2 ed|gedg BAA:|!
|:d|eaad eaad|eaag edBd|ef g2 afgd|efge dBBd|!
eaad eaad|eaag edBd|ef g2 afgd|efgd BAA:|
